X:28
T:PRTYPEG- Pretty Peggy, O. Dodd, Mead & Co. NY, 1880
S:from Ed Cray's xerox at LC Folklore Archive
Q:1/4=120
L:1/4
M:C
K:A
c/3/B/|AE3/4A/4 F/E/ C/E/|EAAA/B/|c/B/ A/B/ c/B/ A/B/|\
ceeB/c/|d/ c/ d/ f/ee3/4/d/4|c/ B/ A/ B/ c c3/4B/4|\
AE3/4/A/4 F/E/ C/E/|FAA2:|]

